006 False Colors - FLANDERS.CUBE
#Created by: Adobe Photoshop Export Color Lookup Plugin
#Copyright: (C) Copyright 2019 BuonCo LLC
TITLE "False Colors - FLANDERS"
#LUT size
LUT_3D_SIZE 32
#data domain
DOMAIN_MIN 0.0 0.0 0.0
DOMAIN_MAX 1.0 1.0 1.0
#LUT data points
0.000000 0.000000 0.000000
0.107880 0.179260 0.237427
0.257446 0.427002 0.563324
0.399170 0.648895 0.820648
0.437958 0.702301 0.858215
0.444855 0.711151 0.858215
0.451752 0.719727 0.858215
0.458282 0.727692 0.858215
0.464752 0.735413 0.858215
0.471039 0.742706 0.858215
0.476990 0.749420 0.858215
0.482880 0.755890 0.854065
0.488586 0.761963 0.847565
0.493958 0.767456 0.840179
0.499298 0.772736 0.831482
0.504486 0.777618 0.821838
0.509369 0.779083 0.811554
0.514221 0.779083 0.800171
0.518768 0.779083 0.788330
0.523315 0.779083 0.775482
0.527710 0.779083 0.762054
0.531830 0.779083 0.748413
0.535919 0.779083 0.733978
0.539856 0.779083 0.719147
0.543579 0.779083 0.704376
0.547272 0.779083 0.688965
0.550842 0.779083 0.673401
0.554199 0.779083 0.658112
0.557556 0.779083 0.642426
0.560699 0.779083 0.627197
0.563812 0.779083 0.611694
0.566833 0.779083 0.596405
0.253510 0.420593 0.555176
0.396210 0.644623 0.816559
0.437592 0.701843 0.858215
0.444672 0.710907 0.858215
0.451599 0.719513 0.858215
0.458130 0.727478 0.858215
0.464600 0.735229 0.858215
0.470734 0.742371 0.858215
0.476837 0.749237 0.858215
0.482727 0.755737 0.854218
0.488312 0.761658 0.847931
0.493835 0.767334 0.840363
0.499176 0.772614 0.831726
0.504242 0.777374 0.822357
0.509247 0.779083 0.811829
0.513977 0.779083 0.800751
0.518677 0.779083 0.788635
0.523193 0.779083 0.775818
0.527496 0.779083 0.762726
0.531708 0.779083 0.748779
0.535828 0.779083 0.734344
0.539673 0.779083 0.719879
0.543488 0.779083 0.704742
0.547180 0.779083 0.689362
0.550659 0.779083 0.674164
0.554108 0.779083 0.658508
0.557465 0.779083 0.642822
0.560608 0.779083 0.627563
0.563721 0.779083 0.612061
0.566681 0.779083 0.597137
0.569580 0.779083 0.582123
0.572418 0.779083 0.567444
0.437378 0.701630 0.858215
0.444519 0.710693 0.858215
0.451263 0.719116 0.858215
0.457947 0.727295 0.858215
0.464264 0.734863 0.858215
0.470581 0.742188 0.858215
0.476685 0.749084 0.858215
0.482422 0.755402 0.854492
0.488159 0.761505 0.848114
0.493683 0.767181 0.840576
0.498932 0.772339 0.832184
0.504120 0.777252 0.822601
0.509125 0.779083 0.812103
0.513855 0.779083 0.801056
0.518555 0.779083 0.788940
0.522980 0.779083 0.776459
0.527374 0.779083 0.763092
0.531616 0.779083 0.749115
0.535614 0.779083 0.735077
0.539581 0.779083 0.720276
0.543396 0.779083 0.705139
0.547028 0.779083 0.690125
0.550568 0.779083 0.674561
0.554047 0.779083 0.658905
0.557281 0.779083 0.643585
0.560516 0.779083 0.627960
0.563568 0.779083 0.612823
0.566589 0.779083 0.597534
0.569519 0.779083 0.582489
0.572266 0.779083 0.568176
0.575012 0.779083 0.553894
0.577667 0.779083 0.540161
0.451080 0.718903 0.858215
0.457794 0.727081 0.858215
0.464111 0.734650 0.858215
0.470428 0.742004 0.858215
0.476379 0.748749 0.858215
0.482300 0.755249 0.854645
0.488007 0.761353 0.848297
0.493439 0.766907 0.840973
0.498779 0.772217 0.832428
0.503998 0.777130 0.822845
0.508881 0.779083 0.812653
0.513733 0.779083 0.801331
0.518433 0.779083 0.789276
0.522858 0.779083 0.776794
0.527252 0.779083 0.763428
0.531403 0.779083 0.749817
0.535522 0.779083 0.735443
0.539490 0.779083 0.720642
0.543213 0.779083 0.705902
0.546936 0.779083 0.690491
0.550476 0.779083 0.674957
0.553864 0.779083 0.659668
0.557220 0.779083 0.643982
0.560455 0.779083 0.628357
0.563507 0.779083 0.613220
0.566528 0.779083 0.597931
0.569366 0.779083 0.583252
0.572205 0.779083 0.568542
0.574951 0.779083 0.554260
0.577545 0.779083 0.540833
0.580109 0.779083 0.527618
0.582642 0.779083 0.515045
0.463959 0.734467 0.858215
0.470123 0.741638 0.858215
0.476227 0.748566 0.858215
0.482147 0.755096 0.854797
0.487732 0.761047 0.848633
0.493286 0.766785 0.841187
0.498657 0.772095 0.832642
0.503723 0.776886 0.823334
0.508759 0.779083 0.812927
0.513611 0.779083 0.801636
0.518219 0.779083 0.789886
0.522766 0.779083 0.777130
0.527039 0.779083 0.764099
0.531311 0.779083 0.750183
0.535400 0.779083 0.735809
0.539276 0.779083 0.721375
0.543121 0.779083 0.706268
0.546814 0.779083 0.690887
0.550323 0.779083 0.675720
0.553772 0.779083 0.660065
0.557129 0.779083 0.644379
0.560303 0.779083 0.629150
0.563416 0.779083 0.613617
0.566376 0.779083 0.598663
0.569305 0.779083 0.583618
0.572144 0.779083 0.568909
0.574829 0.779083 0.554962
0.577484 0.779083 0.541168
0.580048 0.779083 0.527924
0.582520 0.779083 0.515656
0.584930 0.779083 0.503754
0.587311 0.779083 0.492706
0.476074 0.748413 0.858215
0.481842 0.754791 0.855072
0.487579 0.760895 0.848816
0.493164 0.766632 0.841370
0.498383 0.771820 0.833099
0.503601 0.776764 0.823608
0.508636 0.779083 0.813202
0.513397 0.779083 0.802216
0.518097 0.779083 0.790192
0.522644 0.779083 0.777466
0.526917 0.779083 0.764435
0.531189 0.779083 0.750549
0.535217 0.779083 0.736542
0.539185 0.779083 0.721771
0.543030 0.779083 0.706665
0.546631 0.779083 0.691681
0.550232 0.779083 0.676117
0.553711 0.779083 0.660461
0.556976 0.779083 0.645172
0.560211 0.779083 0.629517
0.563354 0.779083 0.614014
0.566284 0.779083 0.599060
0.569214 0.779083 0.583984
0.571991 0.779083 0.569611
0.574768 0.779083 0.555328
0.577393 0.779083 0.541504
0.579926 0.779083 0.528595
0.582458 0.779083 0.515961
0.584869 0.779083 0.504059
0.587189 0.779083 0.493225
0.589478 0.779083 0.482971
0.591736 0.779083 0.473663
0.487457 0.760773 0.848969
0.492889 0.766357 0.841766
0.498260 0.771698 0.833313
0.503479 0.776672 0.823853
0.508392 0.779083 0.813721
0.513275 0.779083 0.802490
0.517975 0.779083 0.790497
0.522430 0.779083 0.778107
0.526825 0.779083 0.764771
0.530975 0.779083 0.751251
0.535095 0.779083 0.736908
0.539093 0.779083 0.722137
0.542816 0.779083 0.707428
0.546539 0.779083 0.692078
0.550140 0.779083 0.676514
0.553528 0.779083 0.661255
0.556885 0.779083 0.645569
0.560120 0.779083 0.629913
0.563202 0.779083 0.614777
0.566223 0.779083 0.599426
0.569092 0.779083 0.584717
0.571930 0.779083 0.569977
0.574677 0.779083 0.555664
0.577271 0.779083 0.542175
0.579865 0.779083 0.528900
0.582367 0.779083 0.516266
0.584747 0.779083 0.504639
0.587128 0.779083 0.493500
0.589417 0.779083 0.483215
0.591614 0.779083 0.474121
0.593811 0.779083 0.465759
0.595917 0.779083 0.458679
0.498138 0.771576 0.833527
0.503204 0.776428 0.824341
0.508270 0.779083 0.813995
0.513153 0.779083 0.802795
0.517731 0.779083 0.791107
0.522308 0.779083 0.778442
0.526703 0.779083 0.765106
0.530884 0.779083 0.751617
0.535004 0.779083 0.737244
0.538879 0.779083 0.722900
0.542725 0.779083 0.707794
0.546448 0.779083 0.692444
0.549957 0.779083 0.677307
0.553436 0.779083 0.661652
0.556793 0.779083 0.645966
0.559967 0.779083 0.630707
0.563110 0.779083 0.615173
0.566132 0.779083 0.599823
0.569000 0.779083 0.585114
0.571869 0.779083 0.570374
0.574554 0.779083 0.556366
0.577209 0.779083 0.542511
0.579803 0.779083 0.529236
0.582245 0.779083 0.516876
0.584686 0.779083 0.504944
0.587067 0.779083 0.493774
0.589294 0.779083 0.483704
0.591553 0.779083 0.474335
0.593781 0.779083 0.465973
0.595856 0.779083 0.458862
0.597961 0.779083 0.452698
0.600159 0.508392 0.450348
0.508148 0.779083 0.814270
0.512909 0.779083 0.803375
0.517639 0.779083 0.791412
0.522186 0.779083 0.778748
0.526489 0.779083 0.765808
0.530762 0.779083 0.751953
0.534790 0.779083 0.737976
0.538788 0.779083 0.723267
0.542633 0.779083 0.708191
0.546265 0.779083 0.693207
0.549866 0.779083 0.677673
0.553345 0.779083 0.662018
0.556641 0.779083 0.646729
0.559906 0.779083 0.631073
0.563049 0.779083 0.615540
0.565979 0.779083 0.600555
0.568939 0.779083 0.585480
0.571777 0.779083 0.570740
0.574493 0.779083 0.556732
0.577148 0.779083 0.542847
0.579681 0.779083 0.529877
0.582184 0.779083 0.517181
0.584625 0.779083 0.505219
0.586945 0.779083 0.494293
0.589264 0.779083 0.483948
0.591522 0.779083 0.474548
0.593658 0.779083 0.466370
0.595795 0.779083 0.459015
0.597900 0.779083 0.452850
0.600159 0.529236 0.449646
0.600159 0.399811 0.470184
0.600159 0.399811 0.470184
0.517517 0.779083 0.791718
0.521973 0.779083 0.779419
0.526398 0.779083 0.766144
0.530670 0.779083 0.752319
0.534698 0.779083 0.738373
0.538696 0.779083 0.723633
0.542450 0.779083 0.708954
0.546173 0.779083 0.693604
0.549774 0.779083 0.678070
0.553192 0.779083 0.662811
0.556549 0.779083 0.647125
0.559814 0.779083 0.631470
0.562897 0.779083 0.616302
0.565918 0.779083 0.600952
0.568878 0.779083 0.585846
0.571655 0.779083 0.571442
0.574402 0.779083 0.557068
0.577026 0.779083 0.543549
0.579620 0.779083 0.530212
0.582123 0.779083 0.517487
0.584503 0.779083 0.505798
0.586884 0.779083 0.494568
0.589203 0.779083 0.484192
0.591400 0.779083 0.475006
0.593597 0.779083 0.466553
0.595734 0.779083 0.459198
0.597809 0.779083 0.453156
0.600159 0.550720 0.449646
0.600159 0.399811 0.470184
0.600159 0.399811 0.470184
0.600159 0.399811 0.470184
0.600159 0.399811 0.470184
0.526276 0.779083 0.766479
0.530457 0.779083 0.753021
0.534576 0.779083 0.738708
0.538483 0.779083 0.724365
0.542358 0.779083 0.709320
0.546082 0.779083 0.694000
0.549622 0.779083 0.678833
0.553101 0.779083 0.663208
0.556488 0.779083 0.647522
0.559662 0.779083 0.632263
0.562805 0.779083 0.616699
0.565857 0.779083 0.601318
0.568726 0.779083 0.586609
0.571594 0.779083 0.571808
0.574280 0.779083 0.557770
0.576935 0.779083 0.543884
0.579559 0.779083 0.530518
0.582001 0.779083 0.518127
0.584442 0.779083 0.506104
0.586823 0.779083 0.494843
0.589081 0.779083 0.484711
0.591339 0.779083 0.475220
0.593536 0.779083 0.466766
0.595642 0.779083 0.459534
0.597748 0.779083 0.453278
0.600159 0.572601 0.449646
0.600159 0.399811 0.470184
0.600159 0.399811 0.470184
0.600159 0.399811 0.470184
0.600159 0.399811 0.470184
0.600159 0.399811 0.470184
0.600159 0.399811 0.470184
0.534485 0.779083 0.739075
0.538391 0.779083 0.724731
0.542267 0.779083 0.709686
0.545898 0.779083 0.694763
0.549530 0.779083 0.679230
0.553009 0.779083 0.663605
0.556305 0.779083 0.648285
0.559570 0.779083 0.632629
0.562744 0.779083 0.617096
0.565704 0.779083 0.602112
0.568665 0.779083 0.586975
0.571503 0.779083 0.572174
0.574219 0.779083 0.558136
0.576874 0.779083 0.544220
0.579437 0.779083 0.531158
0.581940 0.779083 0.518433
0.584381 0.779083 0.506378
0.586731 0.779083 0.495392
0.589020 0.779083 0.484955
0.591278 0.779083 0.475433
0.593414 0.779083 0.467163
0.595581 0.779083 0.459717
0.597717 0.779083 0.453430
0.600159 0.616547 0.449646
0.600159 0.399811 0.470184
0.600159 0.399811 0.470184
0.600159 0.399811 0.470184
0.600159 0.399811 0.470184
0.600159 0.399811 0.470184
0.600159 0.399811 0.470184
0.600159 0.399811 0.470184
0.600159 0.399811 0.470184
0.542053 0.779083 0.710449
0.545807 0.779083 0.695129
0.549438 0.779083 0.679626
0.552856 0.779083 0.664398
0.556213 0.779083 0.648712
0.559509 0.779083 0.633057
0.562592 0.779083 0.617859
0.565613 0.779083 0.602478
0.568573 0.779083 0.587341
0.571381 0.779083 0.572906
0.574127 0.779083 0.558502
0.576752 0.779083 0.544891
0.579346 0.779083 0.531525
0.581879 0.779083 0.518738
0.584259 0.779083 0.506958
0.586670 0.779083 0.495667
0.588959 0.779083 0.485199
0.591187 0.779083 0.475891
0.593384 0.779083 0.467346
0.595551 0.779083 0.459869
0.597595 0.779083 0.453705
0.600159 0.638184 0.449646
0.600159 0.399811 0.470184
0.600159 0.399811 0.470184
0.600159 0.399811 0.470184
0.600159 0.399811 0.470184
0.600159 0.399811 0.470184
0.600159 0.399811 0.470184
0.600159 0.399811 0.470184
0.600159 0.399811 0.470184
0.600159 0.399811 0.470184
0.600159 0.399811 0.470184
0.549255 0.779083 0.680420
0.552765 0.779083 0.664764
0.556152 0.779083 0.649078
0.559326 0.779083 0.633820
0.562500 0.779083 0.618256
0.565552 0.779083 0.602875
0.568420 0.779083 0.588104
0.571289 0.779083 0.573273
0.574066 0.779083 0.558868
0.576691 0.779083 0.545258
0.579285 0.779083 0.531830
0.581757 0.779083 0.519348
0.584198 0.779083 0.507263
0.586609 0.779083 0.495911
0.588867 0.779083 0.485718
0.591125 0.779083 0.476135
0.593323 0.779083 0.467560
0.595428 0.779083 0.460236
0.597534 0.779083 0.453857
0.600159 0.659241 0.449646
0.600159 0.399811 0.470184
0.600159 0.399811 0.470184
0.600159 0.399811 0.470184
0.600159 0.399811 0.470184
0.600159 0.399811 0.470184
0.600159 0.399811 0.470184
0.600159 0.399811 0.470184
0.600159 0.399811 0.470184
0.600159 0.399811 0.470184
0.600159 0.399811 0.470184
0.620422 0.752380 0.371613
0.623596 0.750458 0.367676
0.555969 0.779083 0.649872
0.559265 0.779083 0.634216
0.562408 0.779083 0.618652
0.565399 0.779083 0.603638
0.568359 0.779083 0.588470
0.571228 0.779083 0.573639
0.573914 0.779083 0.559570
0.576630 0.779083 0.545593
0.579163 0.779083 0.532501
0.581696 0.779083 0.519684
0.584137 0.779083 0.507538
0.586487 0.779083 0.496490
0.588806 0.779083 0.485962
0.591064 0.779083 0.476349
0.593201 0.779083 0.467957
0.595367 0.779083 0.460388
0.597473 0.779083 0.454010
0.600159 0.698700 0.449646
0.600159 0.399811 0.470184
0.600159 0.399811 0.470184
0.600159 0.399811 0.470184
0.600159 0.399811 0.470184
0.600159 0.399811 0.470184
0.600159 0.399811 0.470184
0.600159 0.399811 0.470184
0.600159 0.399811 0.470184
0.600159 0.399811 0.470184
0.600159 0.399811 0.470184
0.620270 0.752441 0.371796
0.623505 0.750519 0.367767
0.627045 0.747253 0.363129
0.630768 0.742920 0.358063
0.562256 0.779083 0.619415
0.565308 0.779083 0.604004
0.568298 0.779083 0.588837
0.571106 0.779083 0.574371
0.573853 0.779083 0.559906
0.576569 0.779083 0.545929
0.579102 0.779083 0.532837
0.581635 0.779083 0.519989
0.584015 0.779083 0.508148
0.586426 0.779083 0.496765
0.588745 0.779083 0.486206
0.590942 0.779083 0.476807
0.593170 0.779083 0.468140
0.595337 0.779083 0.460571
0.597382 0.779083 0.454285
0.600159 0.716675 0.449646
0.600159 0.399811 0.470184
0.600159 0.399811 0.470184
0.600159 0.399811 0.470184
0.600159 0.399811 0.470184
0.600159 0.399811 0.470184
0.600159 0.399811 0.470184
0.600159 0.399811 0.470184
0.600159 0.399811 0.470184
0.600159 0.399811 0.470184
0.600159 0.399811 0.470184
0.620178 0.752472 0.371887
0.623413 0.750580 0.367889
0.626862 0.747467 0.363403
0.630646 0.743042 0.358215
0.634613 0.737610 0.352631
0.638916 0.730957 0.346436
0.568146 0.779083 0.589600
0.571014 0.779083 0.574738
0.573792 0.779083 0.560272
0.576416 0.779083 0.546600
0.579041 0.779083 0.533142
0.581573 0.779083 0.520294
0.583954 0.779083 0.508453
0.586365 0.779083 0.497040
0.588623 0.779083 0.486725
0.590912 0.779083 0.477051
0.593109 0.779083 0.468353
0.595215 0.779083 0.460938
0.597321 0.779083 0.454437
0.600159 0.733124 0.449646
0.600159 0.399811 0.470184
0.600159 0.399811 0.470184
0.600159 0.399811 0.470184
0.600159 0.399811 0.470184
0.600159 0.399811 0.470184
0.600159 0.399811 0.470184
0.600159 0.399811 0.470184
0.600159 0.399811 0.470184
0.600159 0.399811 0.470184
0.600159 0.399811 0.470184
0.620117 0.752502 0.371979
0.623260 0.750702 0.368103
0.626770 0.747559 0.363525
0.630554 0.743164 0.358337
0.634491 0.737762 0.352783
0.638794 0.731140 0.346588
0.643311 0.723450 0.339966
0.647949 0.715027 0.333099
0.573639 0.779083 0.560974
0.576355 0.779083 0.546967
0.578979 0.779083 0.533478
0.581451 0.779083 0.520935
0.583893 0.779083 0.508728
0.586304 0.779083 0.497314
0.588562 0.779083 0.486969
0.590851 0.779083 0.477264
0.592987 0.779083 0.468781
0.595154 0.779083 0.461121
0.597260 0.779083 0.454590
0.600159 0.760529 0.449646
0.600159 0.399811 0.470184
0.600159 0.399811 0.470184
0.600159 0.399811 0.470184
0.600159 0.399811 0.470184
0.600159 0.399811 0.470184
0.600159 0.399811 0.470184
0.600159 0.399811 0.470184
0.600159 0.399811 0.470184
0.600159 0.399811 0.470184
0.600159 0.399811 0.470184
0.619965 0.752563 0.372162
0.623169 0.750763 0.368195
0.626678 0.747650 0.363647
0.630371 0.743408 0.358612
0.634399 0.737915 0.352936
0.638672 0.731323 0.346771
0.643097 0.723877 0.340302
0.647827 0.715271 0.333282
0.652649 0.705994 0.326050
0.657806 0.695648 0.318298
0.578857 0.779083 0.534149
0.581390 0.779083 0.521240
0.583832 0.779083 0.509033
0.586182 0.779083 0.497864
0.588501 0.779083 0.487213
0.590729 0.779083 0.477722
0.592926 0.779083 0.468994
0.595123 0.779083 0.461304
0.597168 0.779083 0.454865
0.600159 0.771027 0.449646
0.600159 0.399811 0.470184
0.600159 0.399811 0.470184
0.600159 0.399811 0.470184
0.600159 0.399811 0.470184
0.600159 0.399811 0.470184
0.600159 0.399811 0.470184
0.600159 0.399811 0.470184
0.600159 0.399811 0.470184
0.600159 0.399811 0.470184
0.600159 0.399811 0.470184
0.619873 0.752594 0.372253
0.623077 0.750824 0.368317
0.626495 0.747833 0.363861
0.630280 0.743530 0.358734
0.634308 0.738068 0.353088
0.638458 0.731659 0.347076
0.642975 0.724060 0.340485
0.647705 0.715485 0.333435
0.652527 0.706238 0.326233
0.657654 0.695923 0.318481
0.662842 0.685089 0.310638
0.668365 0.673279 0.302368
0.583740 0.779083 0.509613
0.586121 0.779083 0.498138
0.588440 0.779083 0.487457
0.590668 0.779083 0.477966
0.592896 0.779083 0.469177
0.595001 0.779083 0.461639
0.597107 0.779083 0.455017
0.599213 0.779083 0.449646
0.600159 0.399811 0.470184
0.600159 0.399811 0.470184
0.600159 0.399811 0.470184
0.600159 0.399811 0.470184
0.600159 0.399811 0.470184
0.600159 0.399811 0.470184
0.600159 0.399811 0.470184
0.600159 0.399811 0.470184
0.600159 0.399811 0.470184
0.600159 0.399811 0.470184
0.619781 0.752625 0.372345
0.622925 0.750946 0.368530
0.626404 0.747925 0.363983
0.630188 0.743652 0.358887
0.634094 0.738373 0.353394
0.638367 0.731842 0.347229
0.642853 0.724274 0.340637
0.647461 0.715942 0.333801
0.652405 0.706482 0.326416
0.657410 0.696442 0.318878
0.662720 0.685394 0.310852
0.668213 0.673584 0.302551
0.673737 0.661438 0.294281
0.679535 0.648407 0.285583
0.588348 0.779083 0.487976
0.590607 0.779083 0.478210
0.592773 0.779083 0.469604
0.594940 0.779083 0.461823
0.597076 0.779083 0.455170
0.599091 0.779083 0.449860
0.600159 0.399811 0.470184
0.600159 0.399811 0.470184
0.600159 0.399811 0.470184
0.600159 0.399811 0.470184
0.600159 0.399811 0.470184
0.600159 0.399811 0.470184
0.600159 0.399811 0.470184
0.600159 0.399811 0.470184
0.600159 0.399811 0.470184
0.600159 0.399811 0.470184
0.613983 0.752655 0.379547
0.622833 0.751007 0.368622
0.626312 0.748016 0.364105
0.629974 0.743896 0.359131
0.634003 0.738525 0.353516
0.638245 0.732025 0.347412
0.642609 0.724670 0.341003
0.647339 0.716156 0.333984
0.652252 0.706726 0.326599
0.657288 0.696716 0.319061
0.662598 0.685669 0.311066
0.667938 0.674194 0.302979
0.673584 0.661774 0.294495
0.679382 0.648743 0.285797
0.685211 0.635529 0.277191
0.691284 0.621521 0.268250
0.592712 0.779083 0.469818
0.594910 0.779083 0.462006
0.596954 0.779083 0.455475
0.599030 0.779083 0.449982
0.600159 0.399811 0.470184
0.600159 0.399811 0.470184
0.600159 0.399811 0.470184
0.600159 0.399811 0.470184
0.600159 0.399811 0.470184
0.600159 0.399811 0.470184
0.600159 0.399811 0.470184
0.600159 0.399811 0.470184
0.600159 0.399811 0.470184
0.600159 0.399811 0.470184
0.609100 0.749237 0.386322
0.622772 0.751068 0.368713
0.626129 0.748199 0.364349
0.629883 0.744019 0.359283
0.633881 0.738678 0.353668
0.638031 0.732361 0.347717
0.642517 0.724884 0.341156
0.647217 0.716400 0.334167
0.652008 0.707245 0.326965
0.657135 0.696991 0.319275
0.662323 0.686249 0.311462
0.667786 0.674500 0.303192
0.673462 0.662079 0.294708
0.679108 0.649414 0.286255
0.685059 0.635864 0.277435
0.691132 0.621887 0.268494
0.697174 0.607849 0.259735
0.703461 0.593109 0.250702
0.596893 0.779083 0.455627
0.598999 0.779083 0.450104
0.600159 0.399811 0.470184
0.600159 0.399811 0.470184
0.600159 0.399811 0.470184
0.600159 0.399811 0.470184
0.600159 0.399811 0.470184
0.600159 0.399811 0.470184
0.600159 0.399811 0.470184
0.600159 0.399811 0.470184
0.600159 0.399811 0.470184
0.600159 0.399811 0.470184
0.605011 0.742340 0.392853
0.622589 0.751190 0.368927
0.626038 0.748291 0.364471
0.629791 0.744141 0.359436
0.633667 0.738953 0.353973
0.637909 0.732544 0.347900
0.642395 0.725067 0.341339
0.646973 0.716827 0.334534
0.651886 0.707489 0.327179
0.657013 0.697266 0.319458
0.662170 0.686523 0.311676
0.667664 0.674805 0.303406
0.673157 0.662720 0.295135
0.678955 0.649750 0.286469
0.684906 0.636230 0.277649
0.690826 0.622589 0.268921
0.696991 0.608215 0.259949
0.703308 0.593475 0.250946
0.709534 0.578857 0.242157
0.716003 0.563660 0.233215
0.600159 0.399811 0.470184
0.600159 0.399811 0.470184
0.600159 0.399811 0.470184
0.600159 0.399811 0.470184
0.600159 0.399811 0.470184
0.600159 0.399811 0.470184
0.600159 0.399811 0.470184
0.600159 0.399811 0.470184
0.600159 0.399811 0.470184
0.600159 0.399811 0.470184
0.600159 0.719604 0.404999
0.622498 0.751221 0.369049
0.625977 0.748352 0.364594
0.629608 0.744385 0.359680
0.633575 0.739105 0.354126
0.637817 0.732727 0.348053
0.642151 0.725464 0.341675
0.646851 0.717041 0.334717
0.651764 0.707733 0.327362
0.656738 0.697784 0.319855
0.662048 0.686798 0.311859
0.667389 0.675385 0.303833
0.673035 0.663025 0.295349
0.678802 0.650085 0.286682
0.684601 0.636932 0.278076
0.690674 0.622955 0.269165
0.696838 0.608582 0.260162
0.702972 0.594238 0.251373
0.709351 0.579254 0.242401
0.715820 0.564026 0.233429
0.722198 0.549072 0.224792
0.728790 0.533630 0.216064
0.600159 0.399811 0.470184
0.600159 0.399811 0.470184
0.600159 0.399811 0.470184
0.600159 0.399811 0.470184
0.600159 0.399811 0.470184
0.600159 0.399811 0.470184
0.600159 0.399811 0.470184
0.600159 0.399811 0.470184
0.600159 0.704468 0.410675
0.622437 0.751282 0.369141
0.625793 0.748535 0.364838
0.629486 0.744476 0.359833
0.633484 0.739258 0.354248
0.637604 0.733063 0.348358
0.642059 0.725647 0.341827
0.646729 0.717285 0.334869
0.651520 0.708221 0.327728
0.656616 0.698059 0.320068
0.661926 0.687073 0.312073
0.667236 0.675690 0.304016
0.672882 0.663361 0.295563
0.678528 0.650726 0.287109
0.684448 0.637268 0.278320
0.690521 0.623291 0.269379
0.696533 0.609283 0.260620
0.702820 0.594604 0.251617
0.709198 0.579620 0.242615
0.715515 0.564789 0.233887
0.722015 0.549438 0.225006
0.728638 0.533997 0.216278
0.735107 0.518921 0.207947
0.741760 0.503510 0.199585
0.600159 0.399811 0.470184
0.600159 0.399811 0.470184
0.600159 0.399811 0.470184
0.600159 0.399811 0.470184
0.600159 0.399811 0.470184
0.600159 0.399811 0.470184
0.600159 0.687256 0.416077
0.622253 0.751404 0.369354
0.625702 0.748627 0.364929
0.629395 0.744598 0.359955
0.633270 0.739532 0.354553
0.637482 0.733215 0.348511
0.641937 0.725861 0.342010
0.646484 0.717712 0.335236
0.651398 0.708466 0.327911
0.656494 0.698303 0.320251
0.661652 0.687653 0.312500
0.667114 0.675995 0.304230
0.672607 0.663971 0.295990
0.678375 0.651062 0.287323
0.684296 0.637604 0.278534
0.690216 0.624023 0.269836
0.696381 0.609680 0.260834
0.702667 0.594971 0.251831
0.708893 0.580383 0.243073
0.715332 0.565186 0.234100
0.721863 0.549835 0.225220
0.728302 0.534790 0.216705
0.734924 0.519318 0.208160
0.741425 0.504303 0.199982
0.748138 0.488953 0.191864
0.754852 0.473785 0.184021
0.600159 0.399811 0.470184
0.600159 0.399811 0.470184
0.600159 0.399811 0.470184
0.600159 0.399811 0.470184
0.600159 0.668304 0.421204
0.622192 0.751434 0.369446
0.625610 0.748718 0.365051
0.629211 0.744843 0.360229
0.633179 0.739685 0.354706
0.637390 0.733398 0.348663
0.641724 0.726257 0.342346
0.646393 0.717926 0.335419
0.651276 0.708679 0.328125
0.656250 0.698822 0.320648
0.661499 0.687958 0.312683
0.666962 0.676300 0.304443
0.672455 0.664307 0.296204
0.678223 0.651398 0.287537
0.684021 0.638275 0.278961
0.690063 0.624359 0.270050
0.696228 0.610046 0.261078
0.702332 0.595703 0.252289
0.708710 0.580750 0.243286
0.715179 0.565552 0.234314
0.721527 0.550598 0.225677
0.728119 0.535187 0.216919
0.734772 0.519714 0.208344
0.741272 0.504669 0.200195
0.747955 0.489349 0.192047
0.754517 0.474548 0.184418
0.761230 0.459595 0.176880
0.767914 0.444946 0.169708
0.600159 0.399811 0.470184
0.600159 0.399811 0.470184
0.600159 0.626373 0.430756
0.622101 0.751495 0.369537
0.625427 0.748871 0.365295
0.629120 0.744934 0.360352
0.633057 0.739838 0.354828
0.637177 0.733734 0.348969
0.641602 0.726440 0.342499
0.646271 0.718140 0.335602
0.651001 0.709167 0.328491
0.656097 0.699097 0.320862
0.661377 0.688232 0.312897
0.666687 0.676910 0.304871
0.672302 0.664612 0.296417
0.677948 0.652039 0.287994
