006 False Colors - FLANDERS.CUBE
#Created by: Adobe Photoshop Export Color Lookup Plugin
#Copyright: (C) Copyright 2019 BuonCo LLC
TITLE "False Colors - FLANDERS"
#LUT size
LUT_3D_SIZE 8
#data domain
#LUT data points
DOMAIN_MIN 0.000000 0.000000 0.000000
DOMAIN_MAX 0.903226 0.903226 0.903226
0.000000 0.000000 0.000000
0.437958 0.702301 0.858215
0.464752 0.735413 0.858215
0.488586 0.761963 0.847565
0.509369 0.779083 0.811554
0.527710 0.779083 0.762054
0.543579 0.779083 0.704376
0.557556 0.779083 0.642426
0.463959 0.734467 0.858215
0.487732 0.761047 0.848633
0.508759 0.779083 0.812927
0.527039 0.779083 0.764099
0.543121 0.779083 0.706268
0.557129 0.779083 0.644379
0.569305 0.779083 0.583618
0.580048 0.779083 0.527924
0.508148 0.779083 0.814270
0.526489 0.779083 0.765808
0.542633 0.779083 0.708191
0.556641 0.779083 0.646729
0.568939 0.779083 0.585480
0.579681 0.779083 0.529877
0.589264 0.779083 0.483948
0.597900 0.779083 0.452850
0.542053 0.779083 0.710449
0.556213 0.779083 0.648712
0.568573 0.779083 0.587341
0.579346 0.779083 0.531525
0.588959 0.779083 0.485199
0.597595 0.779083 0.453705
0.600159 0.399811 0.470184
0.600159 0.399811 0.470184
0.568146 0.779083 0.589600
0.579041 0.779083 0.533142
0.588623 0.779083 0.486725
0.597321 0.779083 0.454437
0.600159 0.399811 0.470184
0.600159 0.399811 0.470184
0.620117 0.752502 0.371979
0.634491 0.737762 0.352783
0.588348 0.779083 0.487976
0.597076 0.779083 0.455170
0.600159 0.399811 0.470184
0.600159 0.399811 0.470184
0.613983 0.752655 0.379547
0.634003 0.738525 0.353516
0.652252 0.706726 0.326599
0.673584 0.661774 0.294495
0.600159 0.399811 0.470184
0.600159 0.399811 0.470184
0.600159 0.704468 0.410675
0.633484 0.739258 0.354248
0.651520 0.708221 0.327728
0.672882 0.663361 0.295563
0.696533 0.609283 0.260620
0.722015 0.549438 0.225006
0.600159 0.604095 0.435150
0.632874 0.740112 0.355133
0.650879 0.709412 0.328674
0.672180 0.664948 0.296631
0.695770 0.611115 0.261749
0.721222 0.551392 0.226105
0.747467 0.490479 0.192657
0.774109 0.431702 0.163452
0.174805 0.290894 0.386383
0.448151 0.715271 0.858215
0.473816 0.745850 0.858215
0.496552 0.770020 0.836182
0.516357 0.779083 0.794769
0.533783 0.779083 0.741608
0.548889 0.779083 0.681976
0.562164 0.779083 0.619812
0.473053 0.744995 0.858215
0.495850 0.769348 0.837250
0.515778 0.779083 0.796295
0.533264 0.779083 0.743408
0.548462 0.779083 0.683929
0.561798 0.779083 0.621735
0.573395 0.779083 0.562408
0.583679 0.779083 0.509918
0.515167 0.779083 0.797791
0.532654 0.779083 0.745544
0.548004 0.779083 0.685852
0.561310 0.779083 0.624054
0.573029 0.779083 0.564209
0.583374 0.779083 0.511414
0.592499 0.779083 0.470642
0.600159 0.399811 0.470184
0.547546 0.779083 0.687805
0.560913 0.779083 0.626007
0.572693 0.779083 0.566010
0.583008 0.779083 0.513214
0.592224 0.779083 0.471710
0.600159 0.399811 0.470184
0.600159 0.399811 0.470184
0.600159 0.399811 0.470184
0.572357 0.779083 0.567810
0.582703 0.779083 0.514740
0.591949 0.779083 0.472809
0.600159 0.399811 0.470184
0.600159 0.399811 0.470184
0.600159 0.399811 0.470184
0.624878 0.749359 0.365997
0.640808 0.727814 0.343658
0.591614 0.779083 0.474121
0.600159 0.469482 0.458344
0.600159 0.399811 0.470184
0.600159 0.399811 0.470184
0.624451 0.749725 0.366547
0.640228 0.728760 0.344513
0.659760 0.691559 0.315308
0.682068 0.642700 0.281860
0.600159 0.399811 0.470184
0.600159 0.399811 0.470184
0.623932 0.750183 0.367218
0.639679 0.729675 0.345306
0.658966 0.693207 0.316498
0.681335 0.644379 0.282959
0.705688 0.587891 0.247559
0.731598 0.527039 0.212402
0.623505 0.750519 0.367767
0.639130 0.730591 0.346130
0.658325 0.694580 0.317505
0.680573 0.646088 0.284027
0.704895 0.589752 0.248688
0.730774 0.528992 0.213470
0.757202 0.468536 0.181366
0.783722 0.411743 0.154449
0.390228 0.635803 0.807922
0.457947 0.727295 0.858215
0.482422 0.755402 0.854492
0.504120 0.777252 0.822601
0.522980 0.779083 0.776459
0.539581 0.779083 0.720276
0.554047 0.779083 0.658905
0.566589 0.779083 0.597534
0.481720 0.754639 0.855225
0.503479 0.776672 0.823853
0.522430 0.779083 0.778107
0.539093 0.779083 0.722137
0.553528 0.779083 0.661255
0.566223 0.779083 0.599426
0.577271 0.779083 0.542175
0.587128 0.779083 0.493500
0.521851 0.779083 0.779724
0.538483 0.779083 0.724365
0.553101 0.779083 0.663208
0.565857 0.779083 0.601318
0.576935 0.779083 0.543884
0.586823 0.779083 0.494843
0.595642 0.779083 0.459534
0.600159 0.399811 0.470184
0.552673 0.779083 0.665161
0.565399 0.779083 0.603638
0.576630 0.779083 0.545593
0.586487 0.779083 0.496490
0.595367 0.779083 0.460388
0.600159 0.399811 0.470184
0.600159 0.399811 0.470184
0.600159 0.399811 0.470184
0.576294 0.779083 0.547302
0.586182 0.779083 0.497864
0.595123 0.779083 0.461304
0.600159 0.399811 0.470184
0.600159 0.399811 0.470184
0.600159 0.399811 0.470184
0.630280 0.743530 0.358734
0.647583 0.715729 0.333618
0.594788 0.779083 0.462372
0.600159 0.399811 0.470184
0.600159 0.399811 0.470184
0.600159 0.399811 0.470184
0.629791 0.744141 0.359436
0.646973 0.716827 0.334534
0.667664 0.674805 0.303406
0.690826 0.622589 0.268921
0.600159 0.399811 0.470184
0.600159 0.399811 0.470184
0.629211 0.744843 0.360229
0.646393 0.717926 0.335419
0.666962 0.676300 0.304443
0.690063 0.624359 0.270050
0.715179 0.565552 0.234314
0.741272 0.504669 0.200195
0.628723 0.745392 0.360870
0.645782 0.719025 0.336304
0.666138 0.678101 0.305695
0.689301 0.626129 0.271179
0.714203 0.567841 0.235657
0.740417 0.506592 0.201233
0.766937 0.447113 0.170776
0.793243 0.392822 0.150513
0.440613 0.705750 0.858215
0.467285 0.738403 0.858215
0.490662 0.764099 0.844849
0.511322 0.779083 0.807098
0.529388 0.779083 0.756500
0.545074 0.779083 0.698212
0.558868 0.779083 0.636169
0.570801 0.779083 0.575836
0.489990 0.763397 0.845764
0.510712 0.779083 0.808502
0.528778 0.779083 0.758606
0.544617 0.779083 0.700165
0.558350 0.779083 0.638519
0.570465 0.779083 0.577667
0.581055 0.779083 0.522797
0.590454 0.779083 0.478912
0.528229 0.779083 0.760315
0.544159 0.779083 0.702057
0.557953 0.779083 0.640472
0.570099 0.779083 0.579529
0.580688 0.779083 0.524719
0.590179 0.779083 0.480072
0.598694 0.779083 0.450867
0.600159 0.399811 0.470184
0.557556 0.779083 0.642426
0.569672 0.779083 0.581757
0.580383 0.779083 0.526306
0.589905 0.779083 0.481293
0.598419 0.779083 0.451508
0.600159 0.399811 0.470184
0.600159 0.399811 0.470184
0.621765 0.751709 0.369965
0.580048 0.779083 0.527924
0.589539 0.779083 0.482727
0.598175 0.779083 0.452179
0.600159 0.399811 0.470184
0.600159 0.399811 0.470184
0.621368 0.751923 0.370453
0.636169 0.735229 0.350372
0.654938 0.701447 0.322601
0.597900 0.779083 0.452850
0.600159 0.399811 0.470184
0.600159 0.399811 0.470184
0.620880 0.752167 0.371033
0.635651 0.736053 0.351135
0.654175 0.702972 0.323730
0.675903 0.656647 0.291016
0.699829 0.601624 0.255890
0.600159 0.399811 0.470184
0.620483 0.752350 0.371521
0.635132 0.736847 0.351898
0.653534 0.704254 0.324707
0.675171 0.658234 0.292114
0.699036 0.603455 0.257019
0.724670 0.543274 0.221497
0.751007 0.482483 0.188477
0.634491 0.737762 0.352783
0.652893 0.705505 0.325653
0.674316 0.660187 0.293427
0.698242 0.605286 0.258148
0.723694 0.545593 0.222809
0.750153 0.484375 0.189484
0.776764 0.426117 0.160889
0.802582 0.375214 0.150513
0.450897 0.718658 0.858215
0.476227 0.748566 0.858215
0.498657 0.772095 0.832642
0.518219 0.779083 0.789886
0.535400 0.779083 0.735809
0.550323 0.779083 0.675720
0.563416 0.779083 0.613617
0.574829 0.779083 0.554962
0.497864 0.771332 0.833984
0.517639 0.779083 0.791412
0.534790 0.779083 0.737976
0.549866 0.779083 0.677673
0.563049 0.779083 0.615540
0.574493 0.779083 0.556732
0.584625 0.779083 0.505219
0.593658 0.779083 0.466370
0.534271 0.779083 0.739807
0.549438 0.779083 0.679626
0.562592 0.779083 0.617859
0.574127 0.779083 0.558502
0.584259 0.779083 0.506958
0.593384 0.779083 0.467346
0.600159 0.399811 0.470184
0.600159 0.399811 0.470184
0.562164 0.779083 0.619812
0.573792 0.779083 0.560272
0.583954 0.779083 0.508453
0.593109 0.779083 0.468353
0.600159 0.399811 0.470184
0.600159 0.399811 0.470184
0.600159 0.399811 0.470184
0.626770 0.747559 0.363525
0.583679 0.779083 0.509918
0.592773 0.779083 0.469604
0.600159 0.399811 0.470184
0.600159 0.399811 0.470184
0.600159 0.399811 0.470184
0.626312 0.748016 0.364105
0.642609 0.724670 0.341003
0.662598 0.685669 0.311066
0.600159 0.399811 0.470184
0.600159 0.399811 0.470184
0.600159 0.399811 0.470184
0.625793 0.748535 0.364838
0.642059 0.725647 0.341827
0.661774 0.687378 0.312286
0.684448 0.637268 0.278320
0.709198 0.579620 0.242615
0.600159 0.399811 0.470184
0.625336 0.748962 0.365417
0.641479 0.726654 0.342682
0.661102 0.688782 0.313293
0.683716 0.638977 0.279419
0.708252 0.581879 0.243958
0.734253 0.520874 0.208984
0.760712 0.460693 0.177429
0.640808 0.727814 0.343658
0.660431 0.690186 0.314301
0.682800 0.641022 0.280731
0.707458 0.583771 0.245087
0.733429 0.522797 0.210052
0.759888 0.462555 0.178345
0.786377 0.406403 0.152130
0.811737 0.359100 0.150513
0.460571 0.730438 0.858215
0.484741 0.757904 0.852081
0.506134 0.779083 0.818512
0.524750 0.779083 0.771179
0.541107 0.779083 0.714233
0.555298 0.779083 0.653015
0.567780 0.779083 0.591492
0.578644 0.779083 0.535126
0.505371 0.778412 0.820038
0.524200 0.779083 0.772858
0.540649 0.779083 0.716125
0.554901 0.779083 0.654968
0.567413 0.779083 0.593353
0.578339 0.779083 0.536804
0.588043 0.779083 0.489288
0.596741 0.779083 0.456085
0.540070 0.779083 0.718384
0.554443 0.779083 0.656952
0.566986 0.779083 0.595642
0.578003 0.779083 0.538452
0.587769 0.779083 0.490570
0.596497 0.779083 0.456879
0.600159 0.399811 0.470184
0.600159 0.399811 0.470184
0.566589 0.779083 0.597534
0.577667 0.779083 0.540161
0.587402 0.779083 0.492157
0.596222 0.779083 0.457703
0.600159 0.399811 0.470184
0.600159 0.399811 0.470184
0.600159 0.481903 0.455505
0.632355 0.740814 0.355835
0.587128 0.779083 0.493500
0.595947 0.779083 0.458527
0.600159 0.399811 0.470184
0.600159 0.399811 0.470184
0.600403 0.408417 0.468048
0.631836 0.741486 0.356537
0.649536 0.712036 0.330719
0.670593 0.668365 0.298981
0.600159 0.399811 0.470184
0.600159 0.399811 0.470184
0.600159 0.399811 0.470184
0.631348 0.742126 0.357239
0.648926 0.713196 0.331635
0.669891 0.669922 0.300018
0.693268 0.616882 0.265350
0.718597 0.557526 0.229645
0.600159 0.399811 0.470184
0.630768 0.742920 0.358063
0.648315 0.714355 0.332550
0.669067 0.671753 0.301300
0.692505 0.618683 0.266479
0.717621 0.559814 0.230988
0.743958 0.498505 0.196899
0.770599 0.439178 0.166962
0.647705 0.715485 0.333435
0.668365 0.673279 0.302368
0.691742 0.620453 0.267578
0.716797 0.561737 0.232086
0.743103 0.500458 0.197937
0.769623 0.441315 0.167999
0.795837 0.387848 0.150513
0.820709 0.344666 0.150513
0.469818 0.741272 0.858215
0.492889 0.766357 0.841766
0.513275 0.779083 0.802490
0.530975 0.779083 0.751251
0.546539 0.779083 0.692078
0.560120 0.779083 0.629913
0.571930 0.779083 0.569977
0.582367 0.779083 0.516266
0.512665 0.779083 0.803955
0.530457 0.779083 0.753021
0.546082 0.779083 0.694000
0.559662 0.779083 0.632263
0.571594 0.779083 0.571808
0.582001 0.779083 0.518127
0.591339 0.779083 0.475220
0.600159 0.594635 0.449646
0.545532 0.779083 0.696320
0.559265 0.779083 0.634216
0.571228 0.779083 0.573639
0.581696 0.779083 0.519684
0.591064 0.779083 0.476349
0.600159 0.698700 0.449646
0.600159 0.399811 0.470184
0.600159 0.399811 0.470184
0.570801 0.779083 0.575836
0.581390 0.779083 0.521240
0.590729 0.779083 0.477722
0.600159 0.771027 0.449646
0.600159 0.399811 0.470184
0.600159 0.399811 0.470184
0.623077 0.750824 0.368317
0.638458 0.731659 0.347076
0.590454 0.779083 0.478912
0.598999 0.779083 0.450104
0.600159 0.399811 0.470184
0.600159 0.399811 0.470184
0.622589 0.751190 0.368927
0.637909 0.732544 0.347900
0.656891 0.697510 0.319672
0.678955 0.649750 0.286469
0.600159 0.399811 0.470184
0.600159 0.399811 0.470184
0.622192 0.751434 0.369446
0.637390 0.733398 0.348663
0.656250 0.698822 0.320648
0.678223 0.651398 0.287537
0.702332 0.595703 0.252289
0.728119 0.535187 0.216919
0.621765 0.751709 0.369965
0.636719 0.734406 0.349609
0.655579 0.700134 0.321625
0.677368 0.653381 0.288849
0.701569 0.597565 0.253418
0.727295 0.537109 0.218018
0.753662 0.476410 0.185364
0.780243 0.418854 0.157593
0.654938 0.701447 0.322601
0.676636 0.654999 0.289948
0.700775 0.599426 0.254547
0.726318 0.539429 0.219330
0.752838 0.478302 0.186340
0.779266 0.420898 0.158508
0.805145 0.370605 0.150513
0.829407 0.332123 0.150513
0.478607 0.751251 0.858002
0.500641 0.773987 0.829193
0.520050 0.779083 0.784851
0.537018 0.779083 0.729919
0.551727 0.779083 0.669464
0.564636 0.779083 0.607452
0.575897 0.779083 0.549377
0.585876 0.779083 0.499237
0.519470 0.779083 0.786438
0.536407 0.779083 0.732147
0.551300 0.779083 0.671417
0.564178 0.779083 0.609772
0.575562 0.779083 0.551117
0.585510 0.779083 0.500946
0.594513 0.779083 0.463287
0.600159 0.399811 0.470184
0.550842 0.779083 0.673401
0.563812 0.779083 0.611694
0.575226 0.779083 0.552856
0.585236 0.779083 0.502350
0.594269 0.779083 0.464233
0.600159 0.399811 0.470184
0.600159 0.399811 0.470184
0.600159 0.399811 0.470184
0.574829 0.779083 0.554962
0.584930 0.779083 0.503754
0.593933 0.779083 0.465393
0.600159 0.399811 0.470184
0.600159 0.399811 0.470184
0.600159 0.399811 0.470184
0.628265 0.745941 0.361511
0.645081 0.720337 0.337372
0.593658 0.779083 0.466370
0.600159 0.399811 0.470184
0.600159 0.399811 0.470184
0.600159 0.399811 0.470184
0.627777 0.746460 0.362152
0.644470 0.721375 0.338226
0.664764 0.681030 0.307770
0.687622 0.630005 0.273651
0.600159 0.399811 0.470184
0.600159 0.399811 0.470184
0.627228 0.747070 0.362885
0.643890 0.722412 0.339111
0.663940 0.682770 0.309021
0.686859 0.631714 0.274750
0.711609 0.573944 0.239258
0.737762 0.512756 0.204559
0.626770 0.747559 0.363525
0.643188 0.723663 0.340149
0.663269 0.684235 0.310028
0.686096 0.633484 0.275848
0.710815 0.575836 0.240356
0.736938 0.514679 0.205597
0.763397 0.454803 0.174500
0.789795 0.399536 0.150513
0.662598 0.685669 0.311066
0.685211 0.635529 0.277191
0.709991 0.577728 0.241486
0.735931 0.516998 0.206879
0.762573 0.456635 0.175415
0.788971 0.401154 0.150513
0.814240 0.354919 0.150513
0.837921 0.321503 0.150513
