006 False Colors - FLANDERS.CUBE
#Created by: Adobe Photoshop Export Color Lookup Plugin
#Copyright: (C) Copyright 2019 BuonCo LLC
TITLE "False Colors - FLANDERS"
#LUT size
LUT_3D_SIZE 5
#data domain
#LUT data points
DOMAIN_MIN 0.000000 0.000000 0.000000
DOMAIN_MAX 0.903226 0.903226 0.903226
0.000000 0.000000 0.000000
0.458282 0.727692 0.858215
0.499298 0.772736 0.831482
0.531830 0.779083 0.748413
0.557556 0.779083 0.642426
0.498138 0.771576 0.833527
0.530884 0.779083 0.751617
0.556793 0.779083 0.645966
0.577209 0.779083 0.542511
0.593781 0.779083 0.465973
0.555969 0.779083 0.649872
0.576630 0.779083 0.545593
0.593201 0.779083 0.467957
0.600159 0.399811 0.470184
0.620270 0.752441 0.371796
0.592712 0.779083 0.469818
0.600159 0.399811 0.470184
0.609100 0.749237 0.386322
0.647217 0.716400 0.334167
0.685059 0.635864 0.277435
0.600159 0.604095 0.435150
0.646027 0.718597 0.335968
0.683716 0.638977 0.279419
0.727631 0.536346 0.217590
0.774109 0.431702 0.163452
0.344086 0.565491 0.731995
0.474426 0.746552 0.858215
0.512177 0.779083 0.805115
0.541962 0.779083 0.710846
0.565552 0.779083 0.602875
0.510956 0.779083 0.807922
0.541107 0.779083 0.714233
0.564789 0.779083 0.606689
0.583679 0.779083 0.509918
0.599091 0.779083 0.449860
0.564117 0.779083 0.610138
0.583130 0.779083 0.512604
0.598633 0.779083 0.450989
0.600159 0.399811 0.470184
0.629120 0.744934 0.360352
0.598175 0.779083 0.452179
0.600159 0.399811 0.470184
0.628265 0.745941 0.361511
0.660034 0.691010 0.314911
0.700775 0.599426 0.254547
0.627411 0.746887 0.362640
0.658844 0.693481 0.316711
0.699371 0.602722 0.256561
0.744629 0.496979 0.196106
0.790771 0.397583 0.150513
0.445740 0.712250 0.858215
0.489288 0.762665 0.846680
0.523865 0.779083 0.773865
0.551300 0.779083 0.671417
0.572845 0.779083 0.565277
0.522858 0.779083 0.776794
0.550476 0.779083 0.674957
0.572205 0.779083 0.568542
0.589661 0.779083 0.482239
0.600159 0.399811 0.470184
0.571594 0.779083 0.571808
0.589081 0.779083 0.484711
0.600159 0.399811 0.470184
0.600159 0.399811 0.470184
0.639679 0.729675 0.345306
0.600159 0.399811 0.470184
0.600159 0.399811 0.470184
0.638672 0.731323 0.346771
0.674164 0.660492 0.293640
0.716949 0.561340 0.231873
0.637604 0.733063 0.348358
0.672882 0.663361 0.295563
0.715515 0.564789 0.233887
0.761749 0.458496 0.176331
0.807190 0.366943 0.150513
0.462830 0.733124 0.858215
0.502960 0.776184 0.824860
0.534698 0.779083 0.738373
0.559814 0.779083 0.631470
0.579620 0.779083 0.530212
0.533783 0.779083 0.741608
0.559021 0.779083 0.635376
0.579041 0.779083 0.533142
0.595215 0.779083 0.460938
0.600159 0.399811 0.470184
0.578461 0.779083 0.536133
0.594727 0.779083 0.462555
0.600159 0.399811 0.470184
0.622498 0.751221 0.369049
0.651642 0.707977 0.327545
0.600159 0.399811 0.470184
0.621765 0.751709 0.369965
0.650513 0.710144 0.329224
0.689301 0.626129 0.271179
0.733765 0.522034 0.209625
0.649414 0.712280 0.330902
0.687927 0.629303 0.273193
0.732269 0.525513 0.211548
0.778595 0.422302 0.159119
0.822968 0.341217 0.150513
0.478607 0.751251 0.858002
0.515411 0.779083 0.797211
0.544617 0.779083 0.700165
0.567566 0.779083 0.592621
0.585876 0.779083 0.499237
0.543762 0.779083 0.703613
0.566895 0.779083 0.596008
0.585358 0.779083 0.501770
0.600159 0.399811 0.470184
0.600159 0.399811 0.470184
0.584747 0.779083 0.504639
0.600159 0.469482 0.458344
0.600159 0.399811 0.470184
0.631836 0.741486 0.356537
0.665039 0.680450 0.307373
0.600159 0.399811 0.470184
0.630951 0.742676 0.357788
0.663788 0.683075 0.309235
0.705048 0.589386 0.248444
0.750824 0.482849 0.188690
0.662598 0.685669 0.311066
0.703613 0.592743 0.250488
0.749298 0.486298 0.190460
0.795349 0.388763 0.150513
0.837921 0.321503 0.150513
